packages/icons/src/components/Icon/assets/small/paperclip.svg

<svg width="16" height="16" viewBox="0 0 16 16" fill="none" xmlns="http://www.w3.org/2000/svg">
<path fill-rule="evenodd" clip-rule="evenodd" d="M12.216 3.78401C11.3373 2.90533 9.91269 2.90533 9.03401 3.78401L3.78401 9.03401C2.90533 9.91269 2.90533 11.3373 3.78401 12.216C4.66246 13.0944 6.08658 13.0947 6.96532 12.2167C6.96554 12.2164 6.96577 12.2162 6.96599 12.216L7.33844 11.8411C7.55739 11.6207 7.91354 11.6195 8.13393 11.8384C8.35433 12.0574 8.3555 12.4135 8.13656 12.6339L7.7628 13.0102L7.76149 13.0115C6.44347 14.3295 4.30653 14.3295 2.98851 13.0115C1.6705 11.6935 1.6705 9.55653 2.98851 8.23851L8.23851 2.98851C9.55653 1.6705 11.6935 1.6705 13.0115 2.98851C14.3285 4.30555 14.3295 6.44029 13.0144 7.75854L10.4234 10.4234C9.65456 11.1923 8.40798 11.1922 7.63914 10.4234C6.87029 9.65454 6.87029 8.40799 7.63914 7.63915L10.2273 5.05103C10.4469 4.83136 10.8031 4.83136 11.0227 5.05103C11.2424 5.2707 11.2424 5.62686 11.0227 5.84653L8.43463 8.43464C8.10513 8.76415 8.10513 9.29838 8.43463 9.62789C8.76332 9.95657 9.29571 9.95739 9.62541 9.63034L12.216 6.96595C13.0946 6.08727 13.0947 4.66269 12.216 3.78401Z" fill="#727683"/>
</svg>

<svg xmlns="http://www.w3.org/2000/svg" width="16" height="16" fill="none" viewBox="0 0 16 16">
    <path fill="#727683" fill-rule="evenodd" d="M12.216 3.784a2.25 2.25 0 0 0-3.182 0l-5.25 5.25a2.25 2.25 0 0 0 3.181 3.183l.001-.001.372-.375a.563.563 0 0 1 .799.793l-.374.376-.002.002A3.375 3.375 0 0 1 2.99 8.239l5.25-5.25a3.375 3.375 0 0 1 4.775 4.77l-2.59 2.664A1.969 1.969 0 0 1 7.638 7.64l2.588-2.588a.562.562 0 1 1 .796.796L8.435 8.435a.844.844 0 0 0 1.19 1.195l2.591-2.664a2.25 2.25 0 0 0 0-3.182" clip-rule="evenodd"/>
</svg>
